16x16/apps/cs-cat-appearance.svg

<svg height="16" width="16" xmlns="http://www.w3.org/2000/svg"><g fill-rule="evenodd" stroke-width=".3"><path d="m8 8-4.672 4.674a6.573 6.573 0 0 0 2.963 1.701z" fill="#139dcb"/><path d="m8 8-1.709 6.375c.546.145 1.117.23 1.709.23s1.163-.085 1.709-.23z" fill="#3ed4f0"/><path d="m8 8 1.709 6.375a6.573 6.573 0 0 0 2.963-1.701z" fill="#32d439"/><path d="m8 8 4.672 4.674a6.574 6.574 0 0 0 1.7-2.963z" fill="#cee834"/><path d="m14.371 6.29-6.371 1.71 6.371 1.71c.145-.545.229-1.117.229-1.71s-.084-1.165-.229-1.71z" fill="#ffe600"/><path d="m12.672 3.326-4.672 4.674 6.371-1.71a6.574 6.574 0 0 0 -1.699-2.964z" fill="#f7ac1b"/><path d="m9.709 1.625-1.709 6.375 4.672-4.674a6.573 6.573 0 0 0 -2.963-1.701z" fill="#fa7c1a"/><path d="m8 1.395c-.592 0-1.163.085-1.709.23l1.709 6.375 1.709-6.375a6.629 6.629 0 0 0 -1.709-.23z" fill="#ee332c"/><path d="m8 8-6.371 1.71a6.574 6.574 0 0 0 1.7 2.964z" fill="#421ca8"/><path d="m1.629 6.29c-.145.544-.229 1.116-.229 1.71s.084 1.165.229 1.71l6.371-1.71z" fill="#e861e2"/><path d="m6.291 1.625a6.573 6.573 0 0 0 -2.963 1.701l4.672 4.674z" fill="#ff5474"/><path d="m3.328 3.326a6.574 6.574 0 0 0 -1.7 2.963l6.372 1.711z" fill="#e92f61"/></g><path d="m8 .5a7.5 7.5 0 0 0 -7.5 7.5 7.5 7.5 0 0 0 7.5 7.5 7.5 7.5 0 0 0 7.5-7.5 7.5 7.5 0 0 0 -7.5-7.5zm0 2a5.5 5.5 0 0 1 5.5 5.5 5.5 5.5 0 0 1 -5.5 5.5 5.5 5.5 0 0 1 -5.5-5.5 5.5 5.5 0 0 1 5.5-5.5z" fill="#fff" stroke="#4f6698" stroke-opacity=".267"/><path d="m-19.517 1.712c-3.31 0-6 2.69-6 6s2.69 6 6 6 6-2.69 6-6-2.69-6-6-6z" fill="none" opacity=".582"/><circle cx="8" cy="8" fill="none" r="5.5" stroke="#4f6698" stroke-opacity=".267"/><circle cx="8" cy="8" fill="#fff" opacity=".25" r="6"/></svg>

<svg width="16" height="16" xmlns="http://www.w3.org/2000/svg"><g fill-rule="evenodd" stroke-width=".3"><path d="m8 8-4.672 4.674a6.573 6.573 0 0 0 2.963 1.701L8 8z" fill="#139dcb"/><path d="m8 8-1.709 6.375c.546.145 1.117.23 1.709.23s1.163-.085 1.709-.23L8 8z" fill="#3ed4f0"/><path d="m8 8 1.709 6.375a6.573 6.573 0 0 0 2.963-1.701L8 8z" fill="#32d439"/><path d="m8 8 4.672 4.674a6.574 6.574 0 0 0 1.7-2.963L8 8z" fill="#cee834"/><path d="M14.371 6.29 8 8l6.371 1.71c.145-.545.229-1.117.229-1.71s-.084-1.165-.229-1.71z" fill="#ffe600"/><path d="M12.672 3.326 8 8l6.371-1.71a6.574 6.574 0 0 0-1.699-2.964z" fill="#f7ac1b"/><path d="M9.709 1.625 8 8l4.672-4.674a6.573 6.573 0 0 0-2.963-1.701z" fill="#fa7c1a"/><path d="M8 1.395c-.592 0-1.163.085-1.709.23L8 8l1.709-6.375A6.629 6.629 0 0 0 8 1.395z" fill="#ee332c"/><path d="M8 8 1.629 9.71a6.574 6.574 0 0 0 1.7 2.964L8 8z" fill="#421ca8"/><path d="M1.629 6.29C1.484 6.834 1.4 7.406 1.4 8s.084 1.165.229 1.71L8 8 1.629 6.29z" fill="#e861e2"/><path d="M6.291 1.625a6.573 6.573 0 0 0-2.963 1.701L8 8 6.291 1.625z" fill="#ff5474"/><path d="M3.328 3.326a6.574 6.574 0 0 0-1.7 2.963L8 8 3.328 3.326z" fill="#e92f61"/></g><path d="M8 .5A7.5 7.5 0 0 0 .5 8 7.5 7.5 0 0 0 8 15.5 7.5 7.5 0 0 0 15.5 8 7.5 7.5 0 0 0 8 .5zm0 2A5.5 5.5 0 0 1 13.5 8 5.5 5.5 0 0 1 8 13.5 5.5 5.5 0 0 1 2.5 8 5.5 5.5 0 0 1 8 2.5z" fill="#fff" stroke="#4f6698" stroke-opacity=".267"/><path d="M-19.517 1.712c-3.31 0-6 2.69-6 6s2.69 6 6 6 6-2.69 6-6-2.69-6-6-6z" color="#000" fill="url(#radialGradient4456)" opacity=".582" overflow="visible"/><circle cx="8" cy="8" r="5.5" fill="none" stroke="#4f6698" stroke-opacity=".267"/><circle cx="8" cy="8" r="6" fill="#fff" opacity=".25"/></svg>
